X: 1
T: Cheshire Waltz
R: waltz
S: https://www.youtube.com/watch?v=4Kr96alXcmI (Anahata)
S: https://tunearch.org/wiki/Cheshire_Waltz
Z:Peter Dunk 12 May 2007 (chords by John Chambers 2018)
M: 3/4
L: 1/8
K:D
"A"[|] A |\
"D"ff/g/f/e/ | dd/e/d/c/ | "G"Bcd | "D"A2f |\
"Em"gfe | "A7"bac | "(D)"edd | "D"d2 :|
"B"|: g |\
"D"fa/f/e/d/ | "A7"ceg | "D"f/a/f/d/B/F/ | DFA |\
"G"GBf | "Em"ged | "A"ce/d/c/B/ | "A7"A2
"A"[|] A |\
"D"ff/g/f/e/ | dd/e/d/c/ | "G"Bcd | "D"A2f |\
"Em"gfe | "A7"bac | "(D)"edd | "D"d2 :|
"C"|: A/G/ |\
"D"FAd | dcB | "A7"cea | g2f | "G"gfg | "Em"Bed |\
[1,3 "E7"cdB | "A7"A2 :|[2,4 "A7"d/c/B/A/B/c/ | "D"d2 :|
